X:1
T:Deh se lo sdegno altiero
T:Jacques Arcadelt c.1500-1568
T:Deh se lo sdegno altiero
T:This work is public domain under CC0: creativecommons.org/publicdomain/zero/1.0/
T:Transcribed from 1558 Gardano edition of Arcadelt's Il primo libro di madrigali a 4 Original note values halved
T:This work is public domain under CC0: creativecommons.org/publicdomain/zero/1.0/
T:This work is public domain under CC0: creativecommons.org/publicdomain/zero/1.0/
T:This work is public domain under CC0: creativecommons.org/publicdomain/zero/1.0/
T:This work is public domain under CC0: creativecommons.org/publicdomain/zero/1.0/
T:This work is public domain under CC0: creativecommons.org/publicdomain/zero/1.0/
C:Jacques Arcadelt
C:c.1500-1568
Z:This work is public domain under CC0: creativecommons.org/publicdomain/zero/1.0/
%%score [ 1 2 3 4 ]
L:1/8
M:4/4
K:C
V:1 treble nm="Cantus" snm="S."
V:2 treble nm="Alto" snm="A."
V:3 treble-8 transpose=-12 nm="Tenor" snm="T."
V:4 bass nm="Bass" snm="B."
V:1
 z4 G4- | G4 c4- | c2 B2 A2 G2 | F2 E2 D4 | E4 z2 G2 | c6 B2 | A2 G2 F3 G | A2 G2 z2 e2 | %8
w: Deh|_ se|_ lo sde- gno\_al-|tie- * *|ro deh|se lo|sde- gno\_al- tie- *|* ro Che|
 e2 e2 d4 | B4 G2 c2 | c2 B2 A4 | B4 z2 B2 | c2 B2 A2 A2 | A4 G4- | G4 z4 | z8 | z2 G2 F2 E2 | %17
w: v'in- fiam- mo|di co- si|cru- da vo-|glia Da|voi tut- to si|to- glia|_||A- scol- ta-|
 D2 D2 C2 G2 | A2 B2 c4 | B4 z4 | z2 G2 A2 B2 | c4 !fermata!B4 | d4 d2 B2 | c2 d2 d2 B2 | %24
w: te per Dio quel|che sia'l ve-|ro|quel che sia'l|ve- ro.|In me gia-|mai non fu ne|
 c2 B2 A4 | G4 z2 G2 | F2 E2 E2 D2 | E2 E2 z2 G2- | G2 G2 c4- | c2 B2 z2 B2- | B2 B2 e4- | %31
w: sia pen- sie-|ro D'of-|fen- der la bel-|ta- de Ch'in|_ voi Mil-|* la ch'in|_ voi Mil-|
 e2 dc d4 | z2 G2 A2 c2 | c2 B2 c3 B | A2 G2- GF E2 | D2 C4 B,2 | C2 G2 c2 c2 | B4 G2 G2 | %38
w: * * * la|Ch'in voi Mil-|la ha or- di-|na- t'il _ _ _|cie- * *|lo Per a- dor-|nar- ne per|
 G2 F2 G2 G2 | z8 | c3 c B2 B2 | A4 G4- | G4 z4 | z4 z2 d2 | e6 e2 | d4 B4 | G2 c2 c2 B2 | A8 | %48
w: a- dor- nar- ne||que- sta no- str'e-|ta- de|_|E|s'al- tro|fu che|ne\_al cal- do ne\_al|ge-|
 B4 z2 G2 | G2 G2 G4 | z2 B2 c2 B2 | A2 A2 A4 | G4 z2 E2 | F2 G2 F2 D2 | E4 z2 G2 | A2 c2 c2 B2 | %56
w: lo Veg-|gia la fin|di nes- sun|mio de- si-|o E|con- tra- ri mi|sien E|con- tra- ri mi|
 A3 B c3 d | e2 d2- dc c2- | c2 B2 c2 C2 | D2 E2 F2 G2 | F2 D2 E4 | z2 G2 A2 c2 | c2 B2 A4 | %63
w: sien _ gl'huo- mi-|ni\_e Di- * * *|* * o E|con- tra- ri mi|sie- * no|E con- tra-|ri mi sien|
 c4 c2 B2 | A4 G4 | G8 |] %66
w: gl'huo- mi- ni\_e|Di- *|o.|
V:2
 z8 | z4 C4 | F6 E2 | D2 C4 B,2 | C3 D E4 | A,4 A,2 B,2 | C2 C2 D4 | E4 z2 c2 | c2 c2 B4 | %9
w: |Deh|se lo|sde- gno\_al- tie-|ro _ _|deh se lo|sde- gno\_al- tie-|ro Che|v'in- fiam- mo|
 G4 E2 G2 | A2 G4 F2 | G2 D2 E2 G2 | G2 G2 E4 | F4 E4- | E4 z4 | z8 | z2 E2 F2 G2 | G2 G2 E2 E2 | %18
w: di co- si|cru- da vo-|glia Da voi tut-|to si to-|* glia|_||A- scol- ta-|te per Dio quel|
 E2 D2 C4 | D2 B,2 A,2 B,2 | C3 D EF G2- | G2 F2 !fermata!G4 | B4 B2 G2 | A2 B2 B2 G2 | A2 G4 ^F2 | %25
w: che sia'l ve-|ro quel che sia'l|ve- * * * *|* * ro.|In me gia-|mai non fu ne|sia pen- sie-|
 G4 E4 | D2 C2 C2 A,2 | B,2 B,2 z2 E2- | E2 E2 G4 | G4 z2 G2- | G2 G2 G4 | G4 z2 D2 | E2 G2 G2 F2 | %33
w: ro D'of-|fen- der la bel-|ta- de Ch'in|_ voi Mil-|la ch'in|_ voi Mil-|la Ch'in|voi Mil- la ha|
 G3 F E2 E2 | z2 D2 E2 G2 | F3 E D4 | E2 E2 E2 F2 | G2 G2 z2 E2 | E2 CD EF G2- | G2 ^F2 G4 | %40
w: or- di- na- to|ha or- di-|na- t'il cie-|lo Per a- dor-|nar- ne per|a- dor- * * * nar-|* * ne|
 z4 G3 G | F2 F2 E4 | D4 G3 F | E2 DC D4 | C2 c2 c2 c2 | B4 G4 | E2 G2 A2 G2- | G2 ^FE F4 | %48
w: que- sta|no- str'e- ta-|de que- sta|no- str'e- * ta-|de E s'al- tro|fu che|ne\_al cal- do ne|_ al _ ge-|
 G4 z2 D2 | E2 E2 D4 | z2 G2 G2 G2 | E2 E2 F4 | E4 z2 G2 | F2 E2 D2 D2 | CDED D2 G,2 | %55
w: lo Veg-|gia la fin|di nes- sun|mio de- si-|o E|con- tra- ri mi|sien- * * * * no|
 z2 C2 D2 E2 | F3 G AB c2- | c2 B2 A4 | G4 E4 | z2 G2 F2 E2 | D2 D2 CDEC | D2 G,2 z2 C2 | %62
w: gl'huo- mi- ni\_e|Di- * * * *||* o|E con- tra-|ri mi sie- * * *|* no E|
 D2 E2 F3 G | A4 G4 | E2 F2 D4 | E8 |] %66
w: con- tra- ri mi|sien gl'huo-|mi- ni Di-|o.|
V:3
 G8 | c6 B2 | A2 G2 F4- | F4 G2 z2 | g6 f2 | e2 d2 c2 d2- | dc c4 B2 | c4 z2 g2 | g2 g2 g4 | %9
w: Deh|se lo|sde- gno\_al- tie-|* ro|deh se|lo sde- gno\_al tie-||ro Che|v'in- fiam- mo|
 d2 g4 e2 | f2 d2 d4 | d2 G2 c2 d2 | e2 d2 c4 | d4 B4- | B4 z4 | z8 | z2 G2 A2 c2 | c2 B2 c3 d | %18
w: di co- si|cru- da vo-|glia Da voi tut-|to si to-|* glia|_||A- scol- ta-|te per Di- *|
 ef g4 f2 | g2 G2 c2 d2 | e6 d2 | c4 !fermata!d4 | g4 g2 d2 | e2 d2 g2 d2 | f2 d2 d4 | B4 c4 | %26
w: |o quel che sia'l|ve- *|* ro.|In me gia-|mai non fu ne|sia pen- sie-|ro D'of-|
 A2 G2 A2 A2 | G2 G2 z2 c2- | c2 c2 e4- | e2 d2 z2 d2- | d2 d2 c4- | c2 BA B2 B2 | c3 B A4 | %33
w: fen- der la bel-|ta- de Ch'in|_ voi Mil-|* la ch'in|_ voi Mil-|* * * la ha|or- di- na-|
 G2 G2 A2 c2 | c2 B2 c2 c2 | F2 F2 G2 G2 | z2 c2 c2 c2 | d4 e4 | c3 c B2 B2 | A4 G4 | %40
w: to ch'in voi Mil-|la ha or- di-|na- t'il cie- lo|Per a- dor-|nar- ne|que- sta no- str'e-|ta- de|
 z2 c2 e2 d2- | dcAB c4 | B3 c d2 B2 | c2 A2 G4 | z2 g2 g2 g2 | g4 d2 g2- | g2 e2 f2 d2 | d8 | %48
w: per a- dor-|* * nar- * ne|que- sta no- str'e-|ta- * de|E s'al- tro|fu che ne\al|_ cal- do ne\_al|ge-|
 d4 B4 | z2 c2 c2 B2 | c2 d2 e2 d2 | c2 c2 d4 | B4 c4 | z2 G2 A2 B2 | c2 A2 G2 d2 | e2 f2 g2 g2 | %56
w: lo _|Veg- gia la|fin di nes- sun|mio de- si-|* o|E con- tra-|ri mi sien E|con- tra- ri mi|
 c4 z2 a2 | g3 f e2 f2 | d4 c2 g2 | f2 e2 d2 G2 | A2 B2 c2 A2 | G2 d2 e2 f2 | g2 g2 c4 | %63
w: sien gl'huo-|mi- * * ni|Di- o E|con- tra- ri E|con- tra- ri mi|sien E con- tra-|ri mi sien|
 f4 e2 d2- | dc c4 B2 | c8 |] %66
w: gl'huo- mi- ni|_ e Di- *|o.|
V:4
 z8 | z8 | z8 | z8 | C,4 C4- | C2 B,2 A,2 G,2 | F,2 E,2 D,4 | C,4 z2 C,2 | C,2 C,2 G,2 G,2- | %9
w: ||||Deh se|_ lo sde- gno\_al-|tie- * *|ro Che|v'in- fiam- mo di|
 G,2 E,4 C,2 | F,2 G,2 D,4 | G,4 z2 G,2 | C2 G,2 A,2 A,2 | D,4 E,4 | z2 E,2 D,2 C,2 | G,2 G,2 C,4 | %16
w: _ co- si|cru- da vo-|glia Da|voi tut- to si|to- glia|A- scol- ta-|te per Dio|
 z2 E,2 D,2 C,2 | G,2 G,2 C,2 C2 | C2 B,2 A,4 | G,4 z2 G,2 | C6 B,2 | A,4 !fermata!G,4 | %22
w: A- scol- ta-|te per Dio quel|che sia'l ve-|ro quel|che sia'l|ve- ro.|
 G,4 G,2 G,2 | C2 B,2 G,2 G,2 | F,2 G,2 D,4 | G,4 C,4 | D,2 E,2 F,2 F,2 | E,2 E,2 z2 C,2- | %28
w: In me gia-|mai non fu ne|sia pen- sie-|ro D'of-|fen- der la bel-|ta- de Ch'in|
 C,2 C,2 C,4 | G,4 z2 G,2- | G,2 G,2 C,4 | G,8 | z8 | z8 | z8 | z4 z2 G,2 | C2 C2 A,4 | %37
w: _ voi Mil-|la ch'in|_ voi Mil-|la||||Per|a- dor- nar-|
 G,2 G,2 C2 C2 | A,4 G,4 | C3 C B,2 B,2 | A,4 G,3 F, | D,2 F,2 C,D,E,F, | G,3 A, B,C D2- | %43
w: ne per a- dor-|nar- ne|que- sta no- str'e-|ta- de _|_ e- ta- * * *||
 DC C4 B,2 | C2 C,2 C,2 C,2 | G,2 G,4 E,2- | E,2 C,2 F,2 G,2 | D,8 | G,4 z2 G,2 | E,2 C,2 G,4 | %50
w: |de E s'al- tro|fu che ne\al|_ cal- do ne\_al|ge-|lo Veg-|gia la fin|
 z2 G,2 C2 G,2 | A,2 A,2 D,4 | E,4 z2 C,2 | D,2 E,2 F,2 G,2 | C,2 C2 C2 B,2 | A,4 G,4 | %56
w: di nes- sun|mio de- si-|o E|con- tra- ri mi|sien E con- tra-|ri mi|
 F,2 F,2- F,G,A,B, | C2 G,2 A,2 F,2 | G,4 C,4 | z2 C,2 D,2 E,2 | F,2 G,2 C,2 C2 | C2 B,2 A,4 | %62
w: sien gl'huo- * * * *|* mi- ni e|Di- o|E con- tra-|ri mi sien E|con- tra- ri|
 G,4 F,2 F,2- | F,G,A,B, C2 G,2 | A,2 F,2 G,4 | C,8 |] %66
w: mi sien gl'huo-|* * * * * mi-|ni e Di-|o.|

